X: 174
T:Jackson's
R:reel
D:Frankie Gavin & Alec Finn
D:Barry Carroll & Joe McHugh: The Long Finger
Z:id:hn-reel-354
M:C|
L:1/8
K:D
D2FD EDFE|DEFD EA,~A,2|CE~E2 GABd|ceAc dBAF|
D2FD EDFE|DEFD EFGB|Ac~c2 dBAG|FAEG FD~D2:|
|:fddc defd|~e3g fedB|A2cA BAcB|ABcA Bcde|
fddc defd|~e3g fedB|ABde faeg|[1 fddc d3e:|[2 fddc d3B||
~A3 A BAAG|FAAF GFED|CA,A,G, A,3E| GBec dBAF|
D2FD EDFE|DEFD EFGB|Ac~c2 dBAG|FAEG FD~D2|]
